!!!OTL: ES WAR EIN ZARTES JUNGFRAEUELEIN
!!!ARE: Europa, Mitteleuropa, Oesterreich, Steiermark
!!!SCT: E2155
!!!YEM: Copyright 1995, estate of Helmut Schaffrath.
**kern
*ICvox
*Ivox
*M6/8
*k[f#c#g#]
*A:
{8e
=1
4a
8a
8a
8b
8cc#
=2
4cc#
8b
4a}
{8a
=3
8a
8cc#
8cc#
8cc#
8ee
8b
=4
4.dd
4cc#}
{8cc#
=5
8cc#
8ee
8ee
8cc#
8a
8a
=6
8dd
8ff#
8ff#
4ee}
{8ee
=7
8dd
8b
8dd
8cc#
8ee
8cc#
=8
4.b
4a}
==
!!!AGN: geistlich, Moral - Lied, Tod
!!!ONB: ESAC (Essen Associative Code) Database: ERK3
!!!AMT: compound duple
!!!AIN: vox
!!!EED: Helmut Schaffrath
!!!EEV: 1.0
*-
